icons/officer.svg

<svg width="48" height="48" viewBox="0 0 48 48" fill="none" xmlns="http://www.w3.org/2000/svg">
<path d="M24 9.49996C24.5333 10.0333 26 10.5666 26 10.5666C26 10.5666 25.6 13.5 24 13.5C22.4 13.5 22 10.5666 22 10.5666C22 10.5666 23.4667 10.0333 24 9.49996Z" fill="black"/>
<path fill-rule="evenodd" clip-rule="evenodd" d="M23.8164 6.01695L23.8077 6.01859L23.7854 6.02282L23.702 6.03892C23.6297 6.05301 23.5247 6.07379 23.3917 6.10095C23.1258 6.15525 22.7474 6.23519 22.2938 6.33838C21.3888 6.54428 20.1748 6.84496 18.9548 7.22195C17.7462 7.5954 16.4812 8.05886 15.5001 8.60184C15.0118 8.87213 14.5441 9.18886 14.1866 9.5616C13.8324 9.93081 13.5 10.4481 13.5 11.0967C13.5 12.8417 13.9894 14.12 14.508 14.9773C14.7632 15.399 15.0222 15.7137 15.2263 15.9298C15.2353 16.0451 15.2515 16.1743 15.2786 16.3145C15.38 16.8401 15.6333 17.5098 16.2127 18.1606C16.0735 18.752 16 19.3679 16 20C16 24.4183 19.5817 28 24 28C28.4183 28 32 24.4183 32 20C32 19.3679 31.9265 18.752 31.7873 18.1606C32.3667 17.5098 32.62 16.8401 32.7214 16.3145C32.7485 16.1743 32.7647 16.0452 32.7737 15.9298C32.9778 15.7137 33.2368 15.3991 33.4919 14.9774C34.0107 14.1201 34.5 12.8419 34.5 11.0967C34.5 10.4481 34.1676 9.93081 33.8134 9.5616C33.4559 9.18886 32.9882 8.87213 32.4999 8.60184C31.5188 8.05886 30.2538 7.5954 29.0452 7.22195C27.8252 6.84496 26.6112 6.54428 25.7062 6.33838C25.2526 6.23519 24.8742 6.15525 24.6083 6.10095C24.4753 6.07379 24.3703 6.05301 24.298 6.03892L24.2146 6.02282L24.1923 6.01859L24.1836 6.01695L24 5.98267L23.8164 6.01695ZM24 6.99996L24.1836 6.01695C24.1834 6.01692 24.1836 6.01695 24 6.99996ZM23.8164 6.01695L24 6.99996C23.8164 6.01695 23.8166 6.01692 23.8164 6.01695ZM24 18.5C26.2067 18.5 27.6885 18.2137 28.6803 17.8419C29.5187 17.5272 30.0075 17.151 30.2908 16.8338C30.3929 16.7194 30.4738 16.6071 30.5378 16.5H17.4622C17.5262 16.6071 17.6071 16.7194 17.7092 16.8338C17.9925 17.151 18.4813 17.5272 19.3197 17.8419C20.3115 18.2137 21.7933 18.5 24 18.5ZM31.3717 14.5H16.6283C16.5147 14.3732 16.3684 14.1885 16.2192 13.942C15.8761 13.3748 15.5039 12.4581 15.5 11.1179C15.5089 11.0973 15.5391 11.0407 15.6298 10.9461C15.7918 10.7773 16.0663 10.5744 16.4686 10.3517C17.2688 9.90879 18.3788 9.49322 19.5452 9.1328C20.7002 8.77592 21.8612 8.48789 22.7375 8.28855C23.1745 8.18912 23.5383 8.1123 23.7919 8.0605C23.873 8.04395 23.9427 8.02995 24 8.01861C24.0573 8.02995 24.127 8.04394 24.2081 8.0605C24.4617 8.1123 24.8255 8.18912 25.2625 8.28855C26.1388 8.48789 27.2998 8.77592 28.4548 9.1328C29.6212 9.49322 30.7312 9.90879 31.5314 10.3517C31.9337 10.5744 32.2082 10.7773 32.3702 10.9461C32.4609 11.0407 32.4911 11.0973 32.5 11.1179C32.4961 12.4583 32.1239 13.375 31.7808 13.9421C31.6316 14.1886 31.4853 14.3732 31.3717 14.5ZM18 20C18 19.8197 18.0079 19.6415 18.0234 19.4656C19.3606 20.0932 21.2766 20.5 24 20.5C26.3447 20.5 28.0889 20.1992 29.382 19.7151C29.5919 19.6365 29.7899 19.5532 29.9766 19.4656C29.9921 19.6415 30 19.8197 30 20C30 23.3137 27.3137 26 24 26C20.6863 26 18 23.3137 18 20ZM15.4968 11.1268C15.4968 11.1268 15.4969 11.126 15.4975 11.1245L15.4968 11.1268Z" fill="black"/>
<path d="M12 35H19V36.2457C19 36.6921 18.704 37.0845 18.2747 37.2072L15.7747 37.9215C15.5952 37.9728 15.4048 37.9728 15.2253 37.9215L12.7253 37.2072C12.296 37.0845 12 36.6921 12 36.2457V35Z" fill="black"/>
<path d="M33.6645 33.1252C33.6127 32.9582 33.3873 32.9582 33.3355 33.1252L32.8639 34.6457C32.8407 34.7204 32.7743 34.771 32.6994 34.771H31.1733C31.0058 34.771 30.936 34.9957 31.0717 35.0989L32.3063 36.0386C32.3669 36.0848 32.3922 36.1666 32.3691 36.2413L31.8975 37.7619C31.8457 37.9288 32.0281 38.0677 32.1638 37.9645L33.3984 37.0247C33.459 36.9786 33.5411 36.9786 33.6017 37.0247L34.8362 37.9645C34.9719 38.0677 35.1543 37.9288 35.1025 37.7619L34.6309 36.2413C34.6078 36.1666 34.6332 36.0848 34.6938 36.0386L35.9283 35.0989C36.064 34.9957 35.9942 34.771 35.8267 34.771H34.3006C34.2257 34.771 34.1593 34.7204 34.1361 34.6457L33.6645 33.1252Z" fill="black"/>
<path fill-rule="evenodd" clip-rule="evenodd" d="M16.8786 28C16.8786 28 6 31.3932 6 35.4668V42.0001H42V35.4668C42 31.3932 31.1214 28 31.1214 28L24.6443 33.4571C24.272 33.7708 23.728 33.7708 23.3557 33.4571L16.8786 28ZM31.5466 30.2569L25.933 34.9866C24.8161 35.9276 23.1839 35.9276 22.067 34.9866L16.4534 30.2569C16.2793 30.3192 16.0871 30.3893 15.88 30.4669C14.9001 30.8337 13.6095 31.3578 12.3325 31.9952C11.0365 32.6421 9.84957 33.3592 9.01561 34.0877C8.11492 34.8746 8 35.3425 8 35.4668V40.0001H40V35.4668C40 35.3425 39.8851 34.8746 38.9844 34.0877C38.1504 33.3592 36.9635 32.6421 35.6675 31.9952C34.3905 31.3578 33.0999 30.8337 32.12 30.4669C31.9129 30.3893 31.7207 30.3192 31.5466 30.2569Z" fill="black"/>
</svg>

<svg
  xmlns="http://www.w3.org/2000/svg"
  width="24"
  height="24"
  viewBox="0 0 24 24"
  fill="none"
  stroke="currentColor"
  stroke-width="2"
  stroke-linecap="round"
  stroke-linejoin="round"
>
  <path d="M24 9.5c.533.533 2 1.067 2 1.067s-.4 2.933-2 2.933-2-2.933-2-2.933 1.467-.534 2-1.067" />
  <path
    fill-rule="evenodd"
    d="m23.816 6.017-.008.002-.023.004-.083.016-.31.062c-.266.054-.645.134-1.098.237-.905.206-2.12.507-3.34.884-1.208.373-2.473.837-3.454 1.38-.488.27-.956.587-1.313.96-.355.369-.687.886-.687 1.535 0 1.745.49 3.023 1.008 3.88.255.422.514.737.718.953q.013.173.053.384c.101.526.354 1.196.934 1.847a8 8 0 1 0 15.575 0c.579-.651.832-1.32.933-1.847q.04-.21.053-.384a5.6 5.6 0 0 0 .718-.953c.519-.857 1.008-2.135 1.008-3.88 0-.649-.332-1.166-.687-1.535-.357-.373-.825-.69-1.313-.96-.981-.543-2.246-1.007-3.455-1.38a47 47 0 0 0-3.339-.884 51 51 0 0 0-1.408-.3l-.083-.015-.023-.004-.008-.002L24 5.983zM24 7l.184-.983zm-.184-.983L24 7zM24 18.5c2.207 0 3.689-.286 4.68-.658.839-.315 1.328-.691 1.61-1.008q.153-.173.248-.334H17.462q.095.162.247.334c.284.317.772.693 1.61 1.008.992.372 2.474.658 4.681.658m7.372-4H16.628a3.7 3.7 0 0 1-.409-.558c-.343-.567-.715-1.484-.719-2.824a.7.7 0 0 1 .13-.172c.162-.169.436-.372.839-.594.8-.443 1.91-.859 3.076-1.22a45 45 0 0 1 3.192-.843A49 49 0 0 1 24 8.019q.086.016.208.041c.254.052.618.13 1.055.229.876.199 2.037.487 3.192.844 1.166.36 2.276.776 3.076 1.219.403.222.677.425.84.594.09.095.12.151.129.172-.004 1.34-.376 2.257-.72 2.824-.148.247-.295.431-.408.558M18 20q0-.27.023-.534c1.338.627 3.254 1.034 5.977 1.034 2.345 0 4.089-.3 5.382-.785q.315-.117.595-.25Q30 19.73 30 20a6 6 0 0 1-12 0m-2.503-8.873v-.003z"
    clip-rule="evenodd"
  />
  <path d="M12 35h7v1.246a1 1 0 0 1-.725.961l-2.5.715a1 1 0 0 1-.55 0l-2.5-.715a1 1 0 0 1-.725-.961z" />
  <path d="M33.665 33.125a.17.17 0 0 0-.33 0l-.471 1.52a.174.174 0 0 1-.165.126h-1.526c-.167 0-.237.225-.101.328l1.234.94c.06.046.086.128.063.202l-.471 1.52c-.052.168.13.307.266.203l1.234-.94a.17.17 0 0 1 .204 0l1.234.94c.136.104.318-.035.267-.202l-.472-1.52a.19.19 0 0 1 .063-.203l1.234-.94c.136-.103.066-.328-.101-.328H34.3a.174.174 0 0 1-.165-.125z" />
  <path
    fill-rule="evenodd"
    d="M16.879 28S6 31.393 6 35.467V42h36v-6.533C42 31.393 31.121 28 31.121 28l-6.477 5.457a1 1 0 0 1-1.288 0zm14.668 2.257-5.614 4.73a3 3 0 0 1-3.866 0l-5.614-4.73q-.262.093-.573.21c-.98.367-2.27.89-3.548 1.528-1.296.647-2.482 1.364-3.316 2.093C8.115 34.875 8 35.343 8 35.467V40h32v-4.533c0-.124-.115-.592-1.016-1.38-.834-.728-2.02-1.445-3.317-2.092a38 38 0 0 0-4.12-1.738"
    clip-rule="evenodd"
  />
</svg>
